svgs/sharp-regular/scale-balanced.svg

<svg xmlns="http://www.w3.org/2000/svg" viewBox="0 0 640 512"><!--! Font Awesome Pro 6.6.0 by @fontawesome - https://fontawesome.com License - https://fontawesome.com/license (Commercial License) Copyright 2024 Fonticons, Inc. --><path d="M520 48L393.3 48C381 19.7 352.8 0 320 0s-61 19.7-73.3 48L120 48 96 48l0 48 24 0 121.6 0c5.8 28.6 26.9 51.7 54.4 60.3L296 464l-176 0-24 0 0 48 24 0 200 0 200 0 24 0 0-48-24 0-176 0 0-307.7c27.5-8.6 48.6-31.7 54.4-60.3L520 96l24 0 0-48-24 0zM97.5 128l-6.7 12.9-88 168L0 314.1 0 320l0 32 0 9.9 7 7 40 40 7 7 9.9 0 128 0 9.9 0 7-7 40-40 7-7 0-9.9 0-32 0-5.9-2.7-5.2-88-168L158.5 128 144 128l-32 0-14.5 0zm29 48l3 0 75.4 144L51.1 320l75.4-144zM496 128l-14.5 0-6.7 12.9-88 168-2.7 5.2 0 5.9 0 32 0 9.9 7 7 40 40 7 7 9.9 0 128 0 9.9 0 7-7 40-40 7-7 0-9.9 0-32 0-5.9-2.7-5.2-88-168L542.5 128 528 128l-32 0zM435.1 320l75.4-144 3 0 75.4 144-153.8 0zM320 48a32 32 0 1 1 0 64 32 32 0 1 1 0-64z"/></svg>

<svg xmlns="http://www.w3.org/2000/svg" viewBox="0 0 640 512"><!--! Font Awesome Pro 6.5.2 by @fontawesome - https://fontawesome.com License - https://fontawesome.com/license (Commercial License) Copyright 2024 Fonticons, Inc. --><path d="M520 48H393.3C381 19.7 352.8 0 320 0s-61 19.7-73.3 48H120 96V96h24H241.6c5.8 28.6 26.9 51.7 54.4 60.3V464H120 96v48h24H320 520h24V464H520 344V156.3c27.5-8.6 48.6-31.7 54.4-60.3H520h24V48H520zM97.5 128l-6.7 12.9-88 168L0 314.1V320v32 9.9l7 7 40 40 7 7H64 192h9.9l7-7 40-40 7-7 0-9.9 0-32v-5.9l-2.7-5.2-88-168L158.5 128H144 112 97.5zm29 48h3l75.4 144H51.1l75.4-144zM496 128H481.5l-6.7 12.9-88 168-2.7 5.2V320v32 9.9l7 7 40 40 7 7H448 576h9.9l7-7 40-40 7-7V352 320v-5.9l-2.7-5.2-88-168L542.5 128H528 496zM435.1 320l75.4-144h3l75.4 144H435.1zM320 48a32 32 0 1 1 0 64 32 32 0 1 1 0-64z"/></svg>
